static/img/step_2.svg

<svg fill="none" height="96" viewBox="0 0 96 96" width="96" xmlns="http://www.w3.org/2000/svg"><circle cx="48" cy="48" fill="#ffe9ce" fill-opacity=".5" r="48"/><path d="m55.108 59.94c.576 0 1.008.132 1.296.396.312.264.468.636.468 1.116 0 1.032-.588 1.548-1.764 1.548h-13.896c-.528 0-.948-.144-1.26-.432-.288-.312-.432-.696-.432-1.152 0-.552.216-1.056.648-1.512l8.46-9.252c1.128-1.224 1.944-2.34 2.448-3.348s.756-2.004.756-2.988c0-1.272-.372-2.244-1.116-2.916-.72-.696-1.752-1.044-3.096-1.044-2.04 0-4.068.78-6.084 2.34-.264.168-.492.3-.684.396-.168.072-.348.108-.54.108-.336 0-.624-.156-.864-.468s-.36-.684-.36-1.116c0-.6.24-1.08.72-1.44 1.008-.864 2.22-1.548 3.636-2.052 1.416-.528 2.844-.792 4.284-.792 2.376 0 4.26.612 5.652 1.836 1.416 1.2 2.124 2.832 2.124 4.896 0 1.464-.324 2.856-.972 4.176-.624 1.32-1.68 2.796-3.168 4.428l-6.804 7.272z" fill="#2ebfa5"/></svg>

<svg width="96" height="96" viewBox="0 0 96 96" fill="none" xmlns="http://www.w3.org/2000/svg">
<circle cx="48" cy="48" r="48" fill="#FFE9CE" fill-opacity="0.5"/>
<path d="M55.108 59.94C55.684 59.94 56.116 60.072 56.404 60.336C56.716 60.6 56.872 60.972 56.872 61.452C56.872 62.484 56.284 63 55.108 63H41.212C40.684 63 40.264 62.856 39.952 62.568C39.664 62.256 39.52 61.872 39.52 61.416C39.52 60.864 39.736 60.36 40.168 59.904L48.628 50.652C49.756 49.428 50.572 48.312 51.076 47.304C51.58 46.296 51.832 45.3 51.832 44.316C51.832 43.044 51.46 42.072 50.716 41.4C49.996 40.704 48.964 40.356 47.62 40.356C45.58 40.356 43.552 41.136 41.536 42.696C41.272 42.864 41.044 42.996 40.852 43.092C40.684 43.164 40.504 43.2 40.312 43.2C39.976 43.2 39.688 43.044 39.448 42.732C39.208 42.42 39.088 42.048 39.088 41.616C39.088 41.016 39.328 40.536 39.808 40.176C40.816 39.312 42.028 38.628 43.444 38.124C44.86 37.596 46.288 37.332 47.728 37.332C50.104 37.332 51.988 37.944 53.38 39.168C54.796 40.368 55.504 42 55.504 44.064C55.504 45.528 55.18 46.92 54.532 48.24C53.908 49.56 52.852 51.036 51.364 52.668L44.56 59.94H55.108Z" fill="#2EBFA5"/>
</svg>
